X: 30136
T: Old Bush, The
R: reel
M: 4/4
K: Dmixolydian
|:A2 GA cAAA|~d2 de faed|A2 GA cAAA|dfed cAGc|
A2 GA cAAA|~d2 de fffg|afge fae^c|1 dfed cAGc:|2 dfed cAAe||
|:~g2 gg ec ~c2|ecge c2 cd|eg gg afge|dfed cA Ae|
~g2 gg ag gg|eggg defg|afge fae^c|1 dfed cAAe:|2 dfed cAGc||

